X: 138
T:Gingling Geordy. HA.137
T:Wylam Away,aka. HA.137
M:6/4
L:1/8
Q:1/4=220
S:Henry Atkinson's original MS,Hartburn,N'umberland,1694.
O:England
A:Hartburn,Northumberland
N:In addition to conventional dotted crs, some notes appear to have dot
N:in front of note, possibly as a staccato effect (i.e as if dot should
N:be over note).
N:It is difficult to distinguish which note the dot belongs to at
N:times!NBr
N:cf PFD Scotch Tunes,1700..CGP.
H:1/8
Z:vmp.Neil Brookes,Jan,2004.
K:G
(ef)|g3d"=".B2g2A2.B2|"="g2dG3A4"="B2|\
"="g3d"=".B2g2A2"=".B2|"="g3d"=".B2"=".G4:|!
|:(Bc)|d2(BcdB) d2(BcdB)|d2(BcdB)"="A4"="B2|!
d2(BcdB) d2(BcdB)|d2(BcdB)G4:|!
|:(ef)|g2d2"=".B2g2d2"=".B2|\
g2d2"=".B2"=".A4"=".B2|g2d2"=".B2g2d2"=".B2|\
g2d2"=".B2"=".G4:|!
|:(dc)|B3AG2A2.B2d2|e2g2.B2A2a2A2|\
.B3AG2A2.B2d2|e2d2."="B2"=".G4:|]
